X:662
T:The geese in the bog
R:Jig
O:Ireland
B:Kerr's First p40
B:O'Neill's 1085
S:My arrangement from various sources
Z:Transcription, arrangement, chords:Mike Long
M:6/8
L:1/8
K:D
"D"Add fdB|"A"AFA AFA|"D"Add fdB|"A"AFA B2A|\
"D"Add fdB|AFA DFA|"G"gfe fdB|"A"AFA B2A:|
|:"D"AFE DFE|D2D DdB|AFD DFA|"G"B2A BdB|\
"D"AFE DFE|D2D Dgf|"G"gfe fdB|"A"AFA BdB:|
